svg/color/lland.svg

<?xml version="1.0" encoding="UTF-8" ?>
<!DOCTYPE svg PUBLIC "-//W3C//DTD SVG 1.1//EN" "http://www.w3.org/Graphics/SVG/1.1/DTD/svg11.dtd">
<svg width="250pt" height="250pt" viewBox="0 0 250 250" version="1.1" xmlns="http://www.w3.org/2000/svg">
<g id="#ffffffff">
<path fill="#ffffff" opacity="1.00" d=" M 0.00 0.00 L 250.00 0.00 L 250.00 250.00 L 0.00 250.00 L 0.00 0.00 M 111.35 1.33 C 83.05 4.32 55.98 17.75 36.33 38.32 C 7.95 67.19 -4.56 110.64 4.22 150.16 C 9.91 177.47 25.28 202.52 46.85 220.17 C 63.28 233.61 83.18 242.90 104.14 246.43 C 124.92 250.45 146.64 248.19 166.57 241.29 C 196.20 230.91 221.49 208.84 235.75 180.86 C 243.90 164.85 248.97 147.00 248.95 128.96 C 250.92 94.54 236.90 59.76 212.12 35.88 C 193.17 17.02 167.80 4.85 141.32 1.46 C 131.35 0.85 121.33 0.92 111.35 1.33 Z" />
<path fill="#ffffff" opacity="1.00" d=" M 110.36 18.13 C 114.86 17.34 119.45 17.66 124.00 17.60 C 155.03 16.06 185.70 30.87 205.85 54.13 C 222.02 72.77 231.62 97.28 231.60 122.00 C 232.44 146.12 224.23 170.41 209.36 189.37 C 189.09 216.01 155.47 231.93 122.01 230.59 C 96.20 230.19 70.90 219.48 52.02 201.98 C 30.69 181.82 17.24 152.58 18.72 123.00 C 17.94 106.59 22.37 90.27 29.74 75.71 C 45.01 44.85 76.23 22.59 110.36 18.13 M 108.43 23.83 C 79.87 28.48 53.56 45.87 38.62 70.72 C 20.60 99.41 18.61 137.23 33.39 167.70 C 45.01 192.25 66.93 211.72 92.73 220.24 C 110.72 226.42 130.46 227.00 148.95 222.73 C 174.62 216.52 197.61 199.96 211.42 177.42 C 228.82 149.73 231.38 113.57 218.29 83.63 C 208.85 61.69 191.40 43.28 169.87 32.89 C 151.05 23.46 129.16 20.35 108.43 23.83 Z" />
<path fill="#ffffff" opacity="1.00" d=" M 75.58 59.53 C 83.95 59.41 92.33 59.58 100.70 59.42 C 100.88 61.94 101.16 64.46 101.19 66.99 C 101.21 95.67 101.15 124.36 101.22 153.04 C 100.89 156.34 103.99 158.76 106.96 159.27 C 110.51 159.32 113.92 158.12 117.31 157.20 C 118.88 163.69 120.40 170.23 120.99 176.90 C 111.31 182.35 98.78 183.53 88.77 178.28 C 80.37 173.83 75.74 164.33 75.60 155.04 C 75.58 123.21 75.63 91.37 75.58 59.53 Z" />
<path fill="#ffffff" opacity="1.00" d=" M 201.14 85.20 C 202.94 85.34 204.76 85.40 206.58 85.41 C 205.02 87.84 204.75 90.71 204.32 93.48 C 202.52 91.05 202.39 87.89 201.14 85.20 Z" />
<path fill="#ffffff" opacity="1.00" d=" M 207.70 92.80 C 207.80 90.04 206.81 86.91 208.99 84.68 C 209.87 86.00 210.71 87.35 211.51 88.73 C 212.36 87.38 213.23 86.03 214.15 84.72 C 215.99 86.99 215.39 89.95 215.48 92.64 C 212.89 92.40 210.27 92.31 207.70 92.80 Z" />
<path fill="#ffffff" opacity="1.00" d=" M 114.83 95.39 C 122.81 95.44 130.79 95.26 138.77 95.43 C 140.17 95.24 140.35 97.04 140.88 97.92 C 146.13 111.08 151.36 124.24 156.93 137.27 C 162.96 123.41 169.12 109.58 174.71 95.54 C 183.19 95.20 191.68 95.45 200.16 95.39 C 196.38 105.82 191.41 115.77 187.19 126.03 C 176.04 151.87 164.94 177.73 153.67 203.52 C 145.42 203.37 137.17 203.46 128.93 203.47 C 133.08 190.62 139.75 178.70 144.45 166.04 C 137.63 148.88 129.89 132.04 122.84 114.95 C 120.22 108.41 116.80 102.17 114.83 95.39 Z" />
</g>
<g id="#005aafff">
<path fill="#005aaf" opacity="1.00" d=" M 111.35 1.33 C 121.33 0.92 131.35 0.85 141.32 1.46 C 167.80 4.85 193.17 17.02 212.12 35.88 C 236.90 59.76 250.92 94.54 248.95 128.96 C 248.97 147.00 243.90 164.85 235.75 180.86 C 221.49 208.84 196.20 230.91 166.57 241.29 C 146.64 248.19 124.92 250.45 104.14 246.43 C 83.18 242.90 63.28 233.61 46.85 220.17 C 25.28 202.52 9.91 177.47 4.22 150.16 C -4.56 110.64 7.95 67.19 36.33 38.32 C 55.98 17.75 83.05 4.32 111.35 1.33 M 110.36 18.13 C 76.23 22.59 45.01 44.85 29.74 75.71 C 22.37 90.27 17.94 106.59 18.72 123.00 C 17.24 152.58 30.69 181.82 52.02 201.98 C 70.90 219.48 96.20 230.19 122.01 230.59 C 155.47 231.93 189.09 216.01 209.36 189.37 C 224.23 170.41 232.44 146.12 231.60 122.00 C 231.62 97.28 222.02 72.77 205.85 54.13 C 185.70 30.87 155.03 16.06 124.00 17.60 C 119.45 17.66 114.86 17.34 110.36 18.13 Z" />
<path fill="#005aaf" opacity="1.00" d=" M 108.43 23.83 C 129.16 20.35 151.05 23.46 169.87 32.89 C 191.40 43.28 208.85 61.69 218.29 83.63 C 231.38 113.57 228.82 149.73 211.42 177.42 C 197.61 199.96 174.62 216.52 148.95 222.73 C 130.46 227.00 110.72 226.42 92.73 220.24 C 66.93 211.72 45.01 192.25 33.39 167.70 C 18.61 137.23 20.60 99.41 38.62 70.72 C 53.56 45.87 79.87 28.48 108.43 23.83 M 75.58 59.53 C 75.63 91.37 75.58 123.21 75.60 155.04 C 75.74 164.33 80.37 173.83 88.77 178.28 C 98.78 183.53 111.31 182.35 120.99 176.90 C 120.40 170.23 118.88 163.69 117.31 157.20 C 113.92 158.12 110.51 159.32 106.96 159.27 C 103.99 158.76 100.89 156.34 101.22 153.04 C 101.15 124.36 101.21 95.67 101.19 66.99 C 101.16 64.46 100.88 61.94 100.70 59.42 C 92.33 59.58 83.95 59.41 75.58 59.53 M 201.14 85.20 C 202.39 87.89 202.52 91.05 204.32 93.48 C 204.75 90.71 205.02 87.84 206.58 85.41 C 204.76 85.40 202.94 85.34 201.14 85.20 M 207.70 92.80 C 210.27 92.31 212.89 92.40 215.48 92.64 C 215.39 89.95 215.99 86.99 214.15 84.72 C 213.23 86.03 212.36 87.38 211.51 88.73 C 210.71 87.35 209.87 86.00 208.99 84.68 C 206.81 86.91 207.80 90.04 207.70 92.80 M 114.83 95.39 C 116.80 102.17 120.22 108.41 122.84 114.95 C 129.89 132.04 137.63 148.88 144.45 166.04 C 139.75 178.70 133.08 190.62 128.93 203.47 C 137.17 203.46 145.42 203.37 153.67 203.52 C 164.94 177.73 176.04 151.87 187.19 126.03 C 191.41 115.77 196.38 105.82 200.16 95.39 C 191.68 95.45 183.19 95.20 174.71 95.54 C 169.12 109.58 162.96 123.41 156.93 137.27 C 151.36 124.24 146.13 111.08 140.88 97.92 C 140.35 97.04 140.17 95.24 138.77 95.43 C 130.79 95.26 122.81 95.44 114.83 95.39 Z" />
</g>
</svg>

<?xml version="1.0" encoding="utf-8"?>
<!-- Generator: Adobe Illustrator 26.0.3, SVG Export Plug-In . SVG Version: 6.00 Build 0)  -->
<svg version="1.1" id="Layer_1" xmlns="http://www.w3.org/2000/svg" xmlns:xlink="http://www.w3.org/1999/xlink" x="0px" y="0px"
	 viewBox="0 0 250 250" style="enable-background:new 0 0 250 250;" xml:space="preserve">
<style type="text/css">
	.st0{fill:#FFFFFF;}
	.st1{fill:#005AAF;}
</style>
<g id="_x23_ffffffff">
	<path class="st0" d="M110.4,18.1c4.5-0.8,9.1-0.5,13.6-0.5c31-1.5,61.7,13.3,81.9,36.5c16.2,18.6,25.8,43.1,25.8,67.9
		c0.8,24.1-7.4,48.4-22.2,67.4c-20.3,26.6-53.9,42.6-87.3,41.2c-25.8-0.4-51.1-11.1-70-28.6c-21.3-20.2-34.8-49.4-33.3-79
		c-0.8-16.4,3.7-32.7,11-47.3C45,44.8,76.2,22.6,110.4,18.1 M108.4,23.8c-28.6,4.6-54.9,22-69.8,46.9c-18,28.7-20,66.5-5.2,97
		c11.6,24.6,33.5,44,59.3,52.5c18,6.2,37.7,6.8,56.2,2.5c25.7-6.2,48.7-22.8,62.5-45.3c17.4-27.7,20-63.8,6.9-93.8
		c-9.4-21.9-26.9-40.3-48.4-50.7C151.1,23.5,129.2,20.4,108.4,23.8z"/>
	<path class="st0" d="M75.6,59.5c8.4-0.1,16.8,0.1,25.1-0.1c0.2,2.5,0.5,5,0.5,7.6c0,28.7,0,57.4,0,86c-0.3,3.3,2.8,5.7,5.7,6.2
		c3.6,0.1,7-1.2,10.3-2.1c1.6,6.5,3.1,13,3.7,19.7c-9.7,5.5-22.2,6.6-32.2,1.4c-8.4-4.4-13-13.9-13.2-23.2
		C75.6,123.2,75.6,91.4,75.6,59.5z"/>
	<path class="st0" d="M201.1,85.2c1.8,0.1,3.6,0.2,5.4,0.2c-1.6,2.4-1.8,5.3-2.3,8.1C202.5,91.1,202.4,87.9,201.1,85.2z"/>
	<path class="st0" d="M207.7,92.8c0.1-2.8-0.9-5.9,1.3-8.1c0.9,1.3,1.7,2.7,2.5,4.1c0.9-1.4,1.7-2.7,2.6-4c1.8,2.3,1.2,5.2,1.3,7.9
		C212.9,92.4,210.3,92.3,207.7,92.8z"/>
	<path class="st0" d="M114.8,95.4c8,0.1,16-0.1,23.9,0c1.4-0.2,1.6,1.6,2.1,2.5c5.2,13.2,10.5,26.3,16,39.4
		c6-13.9,12.2-27.7,17.8-41.7c8.5-0.3,17-0.1,25.4-0.2c-3.8,10.4-8.8,20.4-13,30.6c-11.2,25.8-22.2,51.7-33.5,77.5
		c-8.2-0.2-16.5-0.1-24.7-0.1c4.2-12.9,10.8-24.8,15.5-37.4c-6.8-17.2-14.6-34-21.6-51.1C120.2,108.4,116.8,102.2,114.8,95.4z"/>
</g>
<g id="_x23_005aafff">
	<path class="st1" d="M111.3,1.3c10-0.4,20-0.5,30,0.1c26.5,3.4,51.8,15.6,70.8,34.4c24.8,23.9,38.8,58.7,36.8,93.1
		c0,18-5.1,35.9-13.2,51.9c-14.3,28-39.6,50.1-69.2,60.4c-19.9,6.9-41.7,9.2-62.4,5.1c-21-3.5-40.9-12.8-57.3-26.3
		c-21.6-17.6-36.9-42.7-42.6-70c-8.8-39.5,3.7-83,32.1-111.8C56,17.8,83.1,4.3,111.3,1.3 M110.4,18.1C76.2,22.6,45,44.8,29.7,75.7
		c-7.4,14.6-11.8,30.9-11,47.3c-1.5,29.6,12,58.8,33.3,79c18.9,17.5,44.2,28.2,70,28.6c33.5,1.3,67.1-14.6,87.3-41.2
		c14.9-19,23.1-43.2,22.2-67.4c0-24.7-9.6-49.2-25.8-67.9C185.7,30.9,155,16.1,124,17.6C119.4,17.7,114.9,17.3,110.4,18.1z"/>
	<path class="st1" d="M108.4,23.8c20.7-3.5,42.6-0.4,61.4,9.1c21.5,10.4,39,28.8,48.4,50.7c13.1,29.9,10.5,66.1-6.9,93.8
		c-13.8,22.5-36.8,39.1-62.5,45.3c-18.5,4.3-38.2,3.7-56.2-2.5c-25.8-8.5-47.7-28-59.3-52.5c-14.8-30.5-12.8-68.3,5.2-97
		C53.6,45.9,79.9,28.5,108.4,23.8 M75.6,59.5c0,31.8,0,63.7,0,95.5c0.1,9.3,4.8,18.8,13.2,23.2c10,5.2,22.5,4.1,32.2-1.4
		c-0.6-6.7-2.1-13.2-3.7-19.7c-3.4,0.9-6.8,2.1-10.3,2.1c-3-0.5-6.1-2.9-5.7-6.2c-0.1-28.7,0-57.4,0-86c0-2.5-0.3-5-0.5-7.6
		C92.3,59.6,83.9,59.4,75.6,59.5 M201.1,85.2c1.2,2.7,1.4,5.9,3.2,8.3c0.4-2.8,0.7-5.6,2.3-8.1C204.8,85.4,202.9,85.3,201.1,85.2
		 M207.7,92.8c2.6-0.5,5.2-0.4,7.8-0.2c-0.1-2.7,0.5-5.7-1.3-7.9c-0.9,1.3-1.8,2.7-2.6,4c-0.8-1.4-1.6-2.7-2.5-4.1
		C206.8,86.9,207.8,90,207.7,92.8 M114.8,95.4c2,6.8,5.4,13,8,19.6c7.1,17.1,14.8,33.9,21.6,51.1c-4.7,12.7-11.4,24.6-15.5,37.4
		c8.2,0,16.5-0.1,24.7,0.1c11.3-25.8,22.4-51.7,33.5-77.5c4.2-10.3,9.2-20.2,13-30.6c-8.5,0.1-17-0.2-25.4,0.2
		c-5.6,14-11.8,27.9-17.8,41.7c-5.6-13-10.8-26.2-16-39.4c-0.5-0.9-0.7-2.7-2.1-2.5C130.8,95.3,122.8,95.4,114.8,95.4z"/>
</g>
</svg>
